X: 2
T: John Keith Lang
C: Addie Harper
M: 4/4
L: 1/8
R: reel
K: Amaj
|: cB |\
A2 ce fcef | cefc e2 ce | f3 f fgaf | e2 ef cBBc |
A2 ce fcef | cefc e2 ce | f3 f fgaf |[1 ecBc A2 :|[2 ecBc A4 ||
|: a2 af e2 fe | cBBc e2 ce | f3 f fgaf | e2 ef cBBc |
A2 ce fcef | cefc e2 ce | f3 f fgaf |[1 ecBc A4 :|[2 ecBc A2 |]
